packages/match-logos/mono/svg/icracked.svg

<svg fill="none" height="40" viewBox="0 0 134 40" width="134" xmlns="http://www.w3.org/2000/svg" xmlns:xlink="http://www.w3.org/1999/xlink"><clipPath id="a"><path d="m0 0h134v40h-134z"/></clipPath><g clip-path="url(#a)" fill="#1f304c"><path d="m21.6 24.5c-1.6-3.1-4.2-4.6-6.7-5.4-.2-.1-.5-.2-.7-.2-.8-.2-1.6-.4-2.6-.5-2.6-.3-5.6 0-7.9 1.3-1.9 1.1-4.3 3.5-3.4 6 .8 2.3 4.2 2 5.9-.2 1.2-1.5 1.8-3.2 3-4.6 1-1.1 1.8-1.8 2.9-2.1 1.4-.4 2.2.8 2.5 1.4s.5 1.6.6 2.7c0 .9.1 2.2 0 4-.1 2.9 1.7 4.9 4.7 4.1 2-.5 3.2-3.7 1.7-6.5z" opacity=".8"/><path d="m22.4 8.50001c-2.2 1.2-3.2 4.79999-5.5 7.29999-.5.5-2.2 2.3-4 1.8-2.1-.5-4.20001-4-7.30001-5.2-1.6-.6-4.2-.7-5.299998 1.1-1 1.7.4 3.6 3.299998 3.4 2-.1 4.3 0 6.4.3 1.50001.2 2.20001.5 3.70001.8.5.1 1 .2 1.6.2 7 .5 12.2-2.3 13.1-5.7 1-3.99999-2.8-5.79999-6-3.99999z" opacity=".6"/><path d="m13.4 0c-3.2 0-5.1 2.4-5.1 5.5 0 4.1 4.1 9.7 5.1 11.1.9-1.4 5.1-7.1 5.1-11.1-.1-3.1-1.9-5.5-5.1-5.5zm0 7.8c-1.4 0-2.6-1.2-2.6-2.6s1.2-2.6 2.6-2.6 2.6 1.2 2.6 2.6-1.2 2.6-2.6 2.6zm13.8 16.8h1.7v15.2h-1.7zm15.1-7.1c2.3 0 3.9.4 6 1.3v1.6c-2-.8-3.6-1.3-5.8-1.3-5.2 0-8.7 2.6-8.7 9.7s3.4 9.6 8.6 9.6c2.2 0 3.8-.4 5.9-1.1v1.6c-2.1.7-3.8 1.1-6 1.1-6 0-10.1-3.2-10.1-11.2s4.1-11.3 10.1-11.3zm23.3 5.4h-4.1v1.7h4c3.8 0 5.5 1.7 5.5 5.4-.5-.2-1.7-.6-4-.6-1.5 0-7.9.2-7.9 5.4 0 4.5 4.7 5.1 6.9 5.1 2.1 0 6.7-.6 6.7-5.1v-5c-.1-4.4-2.2-6.9-7.1-6.9zm5.4 12c0 3-3 3.5-5 3.5s-5.2-.6-5.2-3.6c0-3.3 4-3.8 6-3.8 2.2 0 3.8.5 4.2.6zm12-12c1.6 0 3.3.4 4.8.9v1.6c-1.5-.5-3.1-.9-4.6-.9-3.8 0-6.2 1.8-6.2 7s2.5 7 6.2 7c1.6 0 3.2-.4 4.6-1v1.6c-1.6.6-3.2.9-4.8.9-3.5 0-7.8-1.4-7.8-8.5s4.3-8.6 7.8-8.6zm-53.7-1.3c0 .7-.6 1.3-1.3 1.3s-1.3-.6-1.3-1.3.6-1.3 1.3-1.3c.7.1 1.3.6 1.3 1.3zm29.2 1.3v1.7c-5.6-.1-6.1 2.6-6.1 6.6v8.5h-1.7v-8.2c0-3.8-.2-8.7 7.8-8.6zm58.9 5.2c0-3.3-2.6-4.7-4.8-5.1-1.3-.2-2.4-.2-3.4 0-4.7 1.1-5.4 6.4-5.4 8.8 0 4.8 2.5 8.2 7.6 8.2 2.7 0 3.9-.4 5.4-1v-1.6c-1.6.6-2.8 1.1-5.3 1.1-5.4 0-5.9-4.6-6-5.6.5.2 1.7.5 3.9.5 1.6 0 8-.2 8-5.3zm-11.8 2.8c.2-3.8 1.7-6.2 4.9-6.4h1c1.9.2 4.2 1 4.2 3.6 0 3.3-4 3.8-6 3.8-2.1 0-3.5-.3-4.1-.6zm26.4-13.3v6.1c-1.4-.5-3.1-.9-4.7-.9-3.5 0-7.5 1.5-7.5 8.5 0 7.6 4.5 8.7 7.3 8.7 6 0 6.6-3.9 6.6-5.1v-17.3zm0 17.3c0 1.7-1.3 3.5-4.9 3.5-2.4 0-5.6-.8-5.6-7.1 0-5.1 2.2-6.8 5.9-6.8 1.7 0 3.3.3 4.7.9zm-41.5-17.3h1.7v22.2h-1.7zm5 13.7 7.9 8.4h-2.3l-7.9-8.4 7.6-8.1h2.3z"/></g></svg>

<svg width="134" height="40" viewBox="0 0 134 40" fill="none" xmlns="http://www.w3.org/2000/svg">
<g clip-path="url(#clip0)">
<path opacity="0.8" d="M21.6 24.5C20 21.4 17.4 19.9 14.9 19.1C14.7 19 14.4 18.9 14.2 18.9C13.4 18.7 12.6 18.5 11.6 18.4C9 18.1 6 18.4 3.7 19.7C1.8 20.8 -0.6 23.2 0.3 25.7C1.1 28 4.5 27.7 6.2 25.5C7.4 24 8 22.3 9.2 20.9C10.2 19.8 11 19.1 12.1 18.8C13.5 18.4 14.3 19.6 14.6 20.2C14.9 20.8 15.1 21.8 15.2 22.9C15.2 23.8 15.3 25.1 15.2 26.9C15.1 29.8 16.9 31.8 19.9 31C21.9 30.5 23.1 27.3 21.6 24.5Z" fill="#1F304C"/>
<path opacity="0.6" d="M22.4 8.50001C20.2 9.70001 19.2 13.3 16.9 15.8C16.4 16.3 14.7 18.1 12.9 17.6C10.8 17.1 8.69999 13.6 5.59999 12.4C3.99999 11.8 1.39999 11.7 0.299992 13.5C-0.700008 15.2 0.699992 17.1 3.59999 16.9C5.59999 16.8 7.89999 16.9 9.99999 17.2C11.5 17.4 12.2 17.7 13.7 18C14.2 18.1 14.7 18.2 15.3 18.2C22.3 18.7 27.5 15.9 28.4 12.5C29.4 8.50001 25.6 6.70001 22.4 8.50001Z" fill="#1F304C"/>
<path d="M13.4 0C10.2 0 8.3 2.4 8.3 5.5C8.3 9.6 12.4 15.2 13.4 16.6C14.3 15.2 18.5 9.5 18.5 5.5C18.4 2.4 16.6 0 13.4 0V0ZM13.4 7.8C12 7.8 10.8 6.6 10.8 5.2C10.8 3.8 12 2.6 13.4 2.6C14.8 2.6 16 3.8 16 5.2C16 6.6 14.8 7.8 13.4 7.8ZM27.2 24.6H28.9V39.8H27.2V24.6ZM42.3 17.5C44.6 17.5 46.2 17.9 48.3 18.8V20.4C46.3 19.6 44.7 19.1 42.5 19.1C37.3 19.1 33.8 21.7 33.8 28.8C33.8 35.9 37.2 38.4 42.4 38.4C44.6 38.4 46.2 38 48.3 37.3V38.9C46.2 39.6 44.5 40 42.3 40C36.3 40 32.2 36.8 32.2 28.8C32.2 20.8 36.3 17.5 42.3 17.5ZM65.6 22.9H61.5V24.6H65.5C69.3 24.6 71 26.3 71 30C70.5 29.8 69.3 29.4 67 29.4C65.5 29.4 59.1 29.6 59.1 34.8C59.1 39.3 63.8 39.9 66 39.9C68.1 39.9 72.7 39.3 72.7 34.8V29.8C72.6 25.4 70.5 22.9 65.6 22.9ZM71 34.9C71 37.9 68 38.4 66 38.4C64 38.4 60.8 37.8 60.8 34.8C60.8 31.5 64.8 31 66.8 31C69 31 70.6 31.5 71 31.6V34.9ZM83 22.9C84.6 22.9 86.3 23.3 87.8 23.8V25.4C86.3 24.9 84.7 24.5 83.2 24.5C79.4 24.5 77 26.3 77 31.5C77 36.7 79.5 38.5 83.2 38.5C84.8 38.5 86.4 38.1 87.8 37.5V39.1C86.2 39.7 84.6 40 83 40C79.5 40 75.2 38.6 75.2 31.5C75.2 24.4 79.5 22.9 83 22.9ZM29.3 21.6C29.3 22.3 28.7 22.9 28 22.9C27.3 22.9 26.7 22.3 26.7 21.6C26.7 20.9 27.3 20.3 28 20.3C28.7 20.4 29.3 20.9 29.3 21.6ZM58.5 22.9V24.6C52.9 24.5 52.4 27.2 52.4 31.2V39.7H50.7V31.5C50.7 27.7 50.5 22.8 58.5 22.9ZM117.4 28.1C117.4 24.8 114.8 23.4 112.6 23C111.3 22.8 110.2 22.8 109.2 23C104.5 24.1 103.8 29.4 103.8 31.8C103.8 36.6 106.3 40 111.4 40C114.1 40 115.3 39.6 116.8 39V37.4C115.2 38 114 38.5 111.5 38.5C106.1 38.5 105.6 33.9 105.5 32.9C106 33.1 107.2 33.4 109.4 33.4C111 33.4 117.4 33.2 117.4 28.1ZM105.6 30.9C105.8 27.1 107.3 24.7 110.5 24.5H111.5C113.4 24.7 115.7 25.5 115.7 28.1C115.7 31.4 111.7 31.9 109.7 31.9C107.6 31.9 106.2 31.6 105.6 31.3V30.9ZM132 17.6V23.7C130.6 23.2 128.9 22.8 127.3 22.8C123.8 22.8 119.8 24.3 119.8 31.3C119.8 38.9 124.3 40 127.1 40C133.1 40 133.7 36.1 133.7 34.9V17.6H132ZM132 34.9C132 36.6 130.7 38.4 127.1 38.4C124.7 38.4 121.5 37.6 121.5 31.3C121.5 26.2 123.7 24.5 127.4 24.5C129.1 24.5 130.7 24.8 132.1 25.4L132 34.9ZM90.5 17.6H92.2V39.8H90.5V17.6ZM95.5 31.3L103.4 39.7H101.1L93.2 31.3L100.8 23.2H103.1L95.5 31.3Z" fill="#1F304C"/>
</g>
<defs>
<clipPath id="clip0">
<rect width="134" height="40" fill="white"/>
</clipPath>
</defs>
</svg>
